svgs/solid/moped.svg

<svg xmlns="http://www.w3.org/2000/svg" viewBox="0 0 640 512"><!--! Font Awesome Pro 6.2.0 by @fontawesome - https://fontawesome.com License - https://fontawesome.com/license (Commercial License) Copyright 2022 Fonticons, Inc. --><path d="M328 56c0-13.3 10.7-24 24-24h41.3c23.8 0 45.1 15.1 52.9 37.6l8.1 23.3 51-25.5c4.4-2.2 9.3-3.4 14.3-3.4H528c8.8 0 16 7.2 16 16v64c0 8.8-7.2 16-16 16h-8.4c-5 0-9.9-1.2-14.3-3.4l-34.9-17.5L500 224.4c4-.3 8-.4 12-.4c43.7 0 83.3 17.5 112.1 45.8c9.5 9.3 9.6 24.5 .3 33.9s-24.5 9.6-33.9 .3C570.2 284.2 542.6 272 512 272c-52.7 0-97 36.5-108.9 85.6c-2 8.4-3.1 17.3-3.1 26.4H368 352 256c0 53-43 96-96 96s-96-43-96-96H32c-17.7 0-32-14.3-32-32V320c0-70.7 57.3-128 128-128h96c17.7 0 32 14.3 32 32v64c0 17.7 14.3 32 32 32h77.3c16.8-38.5 48.4-69.2 87.6-84.7L400.8 85.4c-1.1-3.2-4.2-5.4-7.6-5.4H352c-13.3 0-24-10.7-24-24zM128 96h96c17.7 0 32 14.3 32 32s-14.3 32-32 32H128c-17.7 0-32-14.3-32-32s14.3-32 32-32zm32 336c26.5 0 48-21.5 48-48H112c0 26.5 21.5 48 48 48zm352 0c26.5 0 48-21.5 48-48s-21.5-48-48-48s-48 21.5-48 48s21.5 48 48 48zm0 48c-53 0-96-43-96-96s43-96 96-96s96 43 96 96s-43 96-96 96z"/></svg>

<svg xmlns="http://www.w3.org/2000/svg" viewBox="0 0 640 512"><!--! Font Awesome Pro 6.1.2 by @fontawesome - https://fontawesome.com License - https://fontawesome.com/license (Commercial License) Copyright 2022 Fonticons, Inc. --><path d="M328 56C328 42.75 338.7 32 352 32H393.3C417.1 32 438.3 47.09 446.1 69.6L454.2 92.88L505.2 67.38C509.7 65.16 514.6 64 519.6 64H528C536.8 64 544 71.16 544 80V144C544 152.8 536.8 160 528 160H519.6C514.6 160 509.7 158.8 505.2 156.6L470.3 139.2L500 224.4C503.1 224.1 507.1 224 512 224C555.7 224 595.3 241.5 624.1 269.8C633.6 279.1 633.7 294.3 624.4 303.8C615.1 313.2 599.9 313.4 590.5 304.1C570.2 284.2 542.6 272 512 272C459.3 272 414.1 308.5 403.1 357.6C401.1 366.1 400 374.9 400 384H256C256 437 213 480 160 480C106.1 480 64 437 64 384H32C14.33 384 0 369.7 0 352V320C0 249.3 57.31 192 128 192H224C241.7 192 256 206.3 256 224V288C256 305.7 270.3 320 288 320H365.3C382.2 281.5 413.7 250.8 452.9 235.3L400.8 85.37C399.7 82.16 396.7 80 393.3 80H352C338.7 80 328 69.26 328 56L328 56zM208 384H112C112 410.5 133.5 432 160 432C186.5 432 208 410.5 208 384zM224 96C241.7 96 256 110.3 256 128C256 145.7 241.7 160 224 160H128C110.3 160 96 145.7 96 128C96 110.3 110.3 96 128 96H224zM416 384C416 330.1 458.1 288 512 288C565 288 608 330.1 608 384C608 437 565 480 512 480C458.1 480 416 437 416 384zM512 432C538.5 432 560 410.5 560 384C560 357.5 538.5 336 512 336C485.5 336 464 357.5 464 384C464 410.5 485.5 432 512 432z"/></svg>
